common/svg/status-failed-icon.svg

<svg fill="none" height="20" viewBox="0 0 20 20" width="20" xmlns="http://www.w3.org/2000/svg"><path clip-rule="evenodd" d="m10 0c-5.5 0-10 4.5-10 10s4.5 10 10 10 10-4.5 10-10-4.5-10-10-10zm-3.53554 13.5355c-.39052-.3905-.39052-1.0237 0-1.4142l2.12133-2.12136-2.12132-2.12132c-.39053-.39052-.39052-1.02369 0-1.41421.39052-.39053 1.02369-.39053 1.41421 0l2.12132 2.12132 2.1213-2.12132c.3905-.39053 1.0237-.39053 1.4142 0 .3906.39052.3906 1.02369 0 1.41421l-2.1213 2.12132 2.1213 2.12136c.3906.3905.3906 1.0237 0 1.4142-.3905.3905-1.0237.3905-1.4142 0l-2.1213-2.1213-2.12132 2.1213c-.39053.3905-1.02369.3905-1.41422 0z" fill="#000" fill-rule="evenodd"/></svg>

<svg width="20" height="20" viewBox="0 0 20 20" fill="none" xmlns="http://www.w3.org/2000/svg">
<path fill-rule="evenodd" clip-rule="evenodd" d="M10 0C4.5 0 0 4.5 0 10C0 15.5 4.5 20 10 20C15.5 20 20 15.5 20 10C20 4.5 15.5 0 10 0ZM6.46446 13.5355C6.07394 13.145 6.07394 12.5118 6.46446 12.1213L8.58579 9.99994L6.46447 7.87862C6.07394 7.4881 6.07395 6.85493 6.46447 6.46441C6.85499 6.07388 7.48816 6.07388 7.87868 6.46441L10 8.58573L12.1213 6.46441C12.5118 6.07388 13.145 6.07388 13.5355 6.46441C13.9261 6.85493 13.9261 7.4881 13.5355 7.87862L11.4142 9.99994L13.5355 12.1213C13.9261 12.5118 13.9261 13.145 13.5355 13.5355C13.145 13.926 12.5118 13.926 12.1213 13.5355L10 11.4142L7.87868 13.5355C7.48815 13.926 6.85499 13.926 6.46446 13.5355Z" fill="black"/>
</svg>
